X:1
T:Motorway Mazurka
C:Jon Swayne
R:Mazurka
M:3/4
L:1/8
K:D
DE ED|:"D"F2 DE ED|"F#m7"A2 DE ED|"G(G6)"cd cA GB|"D(A7)"AF DE ED|
"D"F2 DE ED|"F#m7"A2 DE ED|"G"cd cA "A"GB|1"D"A2 DE ED:|2"D"A4 D2||
|:"G"AB BA Bd|"A7"B2 A2 G2|"D"GA AG "Dmaj7"Ad|"Bm"A2 G2 F2|"Em7"FG GF Gd|
"A"G2 F2 E2|1"D"DC D"Em7"E DE|"F#m7"FE F"A"G FG:|2"D"DE E"G"F FG|"A"E2|]